dist/svg/hook.svg

<!-- Generated by Trend Micro Style Portal -->
<svg version="1.1" xmlns="http://www.w3.org/2000/svg" width="16" height="16" viewBox="0 0 16 16">
  <title>hook</title>
  <path fill="rgb(34,34,34)" d="M14.25 2c0-1.103-0.897-2-2-2s-2 0.897-2 2c0 0.837 0.518 1.554 1.25 1.851v7.149c0 1.93-1.57 3.5-3.5 3.5s-3.5-1.57-3.5-3.5h2.5l-4-6v6c0 2.75 2.25 5 5 5h0c2.75 0 5-2.25 5-5v-7.149c0.732-0.298 1.25-1.014 1.25-1.851zM12.25 3c-0.551 0-1-0.448-1-1s0.449-1 1-1 1 0.448 1 1-0.449 1-1 1z"></path>
</svg>

<svg width="16" height="16" viewBox="0 0 16 16" fill="rgb(34, 34, 34)" xmlns="http://www.w3.org/2000/svg"><title>hook</title><path d="M14.25 2C14.25 0.897 13.353 0 12.25 0C11.147 0 10.25 0.897 10.25 2C10.25 2.837 10.768 3.554 11.5 3.851V11C11.5 12.93 9.93 14.5 8 14.5C6.07 14.5 4.5 12.93 4.5 11H7L3 5V11C3 13.75 5.25 16 8 16C10.75 16 13 13.75 13 11V3.851C13.732 3.553 14.25 2.837 14.25 2ZM12.25 3C11.699 3 11.25 2.552 11.25 2C11.25 1.448 11.699 1 12.25 1C12.801 1 13.25 1.448 13.25 2C13.25 2.552 12.801 3 12.25 3Z" fill="rgb(34, 34, 34)" fill-opacity="1.00"/></svg>
